public/Education.svg

<svg width="50" height="50" viewBox="0 0 50 50" fill="none" xmlns="http://www.w3.org/2000/svg">
<path d="M37.4991 36.4364L24.9991 43.4676L12.4992 36.4364V29.0076L8.92773 27.0234V38.5249L24.9991 47.5651L41.0706 38.5249V27.0234L37.4991 29.0076V36.4364Z" fill="#1096E1"/>
<path d="M25 2.43359L0 15.3965V18.4919L25 32.3803L46.4285 20.476V30.338H50V15.3965L25 2.43359ZM42.8571 18.3746L39.2856 20.3586L25 28.2955L10.7143 20.3586L7.14285 18.3746L4.66752 16.9993L25 6.45659L45.3325 16.9993L42.8571 18.3746Z" fill="#1096E1"/>
</svg>

<svg xmlns="http://www.w3.org/2000/svg" width="50" height="50" fill="#1096e1" xmlns:v="https://vecta.io/nano"><path d="M37.499 36.436l-12.5 7.031-12.5-7.031v-7.429l-3.571-1.984v11.502l16.071 9.04 16.072-9.04V27.023l-3.572 1.984v7.429zM25 2.434L0 15.397v3.095L25 32.38l21.429-11.904v9.862H50V15.397L25 2.434zm17.857 15.941l-3.572 1.984L25 28.296l-14.286-7.937-3.571-1.984L4.668 17 25 6.457 45.333 17l-2.475 1.375z"/></svg>
